src/gui/emoticons/kiss.svg

<svg xmlns="http://www.w3.org/2000/svg" xmlns:xlink="http://www.w3.org/1999/xlink" width="16pt" height="16pt" version="1.1" viewBox="0 0 16 16"><defs><linearGradient id="linear0" x1="64.074" x2="64.074" y1="19.743" y2="107.8" gradientTransform="matrix(0.125,0,0,0.125,0,0)" gradientUnits="userSpaceOnUse"><stop offset=".5" style="stop-color:#fee133;stop-opacity:1"/><stop offset=".612" style="stop-color:#fede32;stop-opacity:1"/><stop offset=".708" style="stop-color:#fcd32f;stop-opacity:1"/><stop offset=".797" style="stop-color:#fac12b;stop-opacity:1"/><stop offset=".883" style="stop-color:#f7a924;stop-opacity:1"/><stop offset=".9" style="stop-color:#f6a323;stop-opacity:1"/></linearGradient><filter id="alpha" width="100%" height="100%" x="0%" y="0%" filterUnits="objectBoundingBox"><feColorMatrix in="SourceGraphic" type="matrix" values="0 0 0 0 1 0 0 0 0 1 0 0 0 0 1 0 0 0 1 0"/></filter><mask id="mask0"><g filter="url(#alpha)"><rect width="16" height="16" x="0" y="0" style="fill:#000;fill-opacity:.8;stroke:none"/></g></mask><radialGradient id="radial0" cx="29.786" cy="66.916" r="19.444" fx="29.786" fy="66.916" gradientTransform="matrix(0.122388,0,0,0.116263,0.260887,1.011313)" gradientUnits="userSpaceOnUse"><stop offset="0" style="stop-color:#ed7770;stop-opacity:1"/><stop offset=".9" style="stop-color:#ed7770;stop-opacity:0"/></radialGradient><clipPath id="clip1"><rect width="16" height="16"/></clipPath><g id="surface6" clip-path="url(#clip1)"><path style="stroke:none;fill-rule:nonzero;fill:url(#radial0)" d="M 6.09375 8.792969 C 6.09375 10 5.113281 10.980469 3.90625 10.980469 C 2.699219 10.980469 1.71875 10 1.71875 8.792969 C 1.71875 7.582031 2.699219 6.605469 3.90625 6.605469 C 5.113281 6.605469 6.09375 7.582031 6.09375 8.792969 Z M 6.09375 8.792969"/></g></defs><g id="surface1"><path style="stroke:none;fill-rule:nonzero;fill:url(#linear0)" d="M 8.007812 15 C 4.515625 15 0.753906 12.8125 0.753906 8.007812 C 0.753906 3.203125 4.515625 1.015625 8.007812 1.015625 C 9.945312 1.015625 11.738281 1.65625 13.058594 2.820312 C 14.5 4.09375 15.265625 5.886719 15.265625 8.007812 C 15.265625 10.117188 14.5 11.90625 13.058594 13.183594 C 11.734375 14.355469 9.941406 15 8.007812 15 Z M 8.007812 15"/><path style="stroke:none;fill-rule:nonzero;fill:#eb8f00;fill-opacity:1" d="M 8.007812 1.265625 C 9.886719 1.265625 11.617188 1.882812 12.890625 3.007812 C 14.28125 4.234375 15.015625 5.960938 15.015625 8.007812 C 15.015625 10.042969 14.28125 11.769531 12.890625 12.996094 C 11.613281 14.128906 9.882812 14.75 8.007812 14.75 C 6.128906 14.75 4.390625 14.136719 3.125 13.019531 C 1.738281 11.800781 1.003906 10.066406 1.003906 8.007812 C 1.003906 5.9375 1.738281 4.203125 3.125 2.984375 C 4.390625 1.875 6.125 1.265625 8.007812 1.265625 M 8.007812 0.765625 C 4.113281 0.765625 0.503906 3.265625 0.503906 8.007812 C 0.503906 12.722656 4.113281 15.25 8.007812 15.25 C 11.90625 15.25 15.515625 12.65625 15.515625 8.007812 C 15.515625 3.332031 11.90625 0.765625 8.007812 0.765625 Z M 8.007812 0.765625"/><path style="fill-rule:nonzero;fill:#eb8f00;fill-opacity:1;stroke-width:1;stroke-linecap:butt;stroke-linejoin:miter;stroke:#eb8f00;stroke-opacity:1;stroke-miterlimit:10" d="M 29.09375 44.0625 C 28.1875 44.0625 27.375 43.625 26.90625 42.9375 C 26.4375 42.25 26.34375 41.375 26.65625 40.5 C 28.625 35.5 32.625 31.28125 37.65625 28.96875 C 39.53125 28.09375 41.5 27.5 43.53125 27.25 C 43.65625 27.21875 43.78125 27.21875 43.90625 27.21875 C 45.21875 27.21875 46.25 28.0625 46.4375 29.34375 C 46.625 30.46875 46.03125 31.875 44.5625 32.375 L 44.15625 31.65625 L 44.4375 32.40625 C 39.09375 34.25 34.34375 38 31.40625 42.71875 C 30.90625 43.5625 30.0625 44.0625 29.09375 44.0625 Z M 29.09375 44.0625" transform="matrix(0.125,0,0,0.125,0,0)"/><path style="stroke:none;fill-rule:nonzero;fill:#cc1775;fill-opacity:1" d="M 12.207031 11.9375 C 11.820312 11.9375 11.382812 11.898438 10.902344 11.824219 C 11.105469 11.488281 11.167969 11.082031 11.058594 10.695312 C 10.871094 10.027344 10.734375 9.101562 11.148438 8.484375 C 11.332031 8.203125 11.648438 8.039062 11.992188 8.039062 C 12.195312 8.039062 12.386719 8.097656 12.550781 8.210938 C 12.863281 8.421875 13.03125 8.765625 13.007812 9.128906 C 13 9.21875 13.042969 9.300781 13.117188 9.351562 C 13.160156 9.382812 13.207031 9.394531 13.257812 9.394531 C 13.292969 9.394531 13.328125 9.386719 13.363281 9.371094 C 13.5 9.304688 13.652344 9.269531 13.808594 9.269531 C 14.015625 9.269531 14.210938 9.328125 14.375 9.441406 C 14.605469 9.59375 14.757812 9.828125 14.8125 10.09375 C 14.863281 10.355469 14.8125 10.621094 14.660156 10.851562 C 14.179688 11.59375 13.398438 11.9375 12.207031 11.9375 Z M 12.207031 11.9375"/><path style="stroke:none;fill-rule:nonzero;fill:#b3005c;fill-opacity:1" d="M 11.992188 8.285156 C 12.140625 8.285156 12.285156 8.332031 12.40625 8.414062 C 12.410156 8.417969 12.410156 8.417969 12.414062 8.421875 C 12.648438 8.578125 12.777344 8.835938 12.757812 9.109375 C 12.746094 9.289062 12.828125 9.457031 12.976562 9.558594 C 13.058594 9.617188 13.160156 9.644531 13.257812 9.644531 C 13.328125 9.644531 13.402344 9.628906 13.472656 9.59375 C 13.574219 9.546875 13.691406 9.519531 13.808594 9.519531 C 13.964844 9.519531 14.109375 9.566406 14.234375 9.648438 C 14.410156 9.765625 14.527344 9.941406 14.566406 10.140625 C 14.605469 10.339844 14.566406 10.539062 14.453125 10.714844 C 14.179688 11.132812 13.648438 11.683594 12.203125 11.683594 C 11.921875 11.683594 11.609375 11.664062 11.269531 11.621094 C 11.378906 11.304688 11.390625 10.957031 11.296875 10.625 C 11.125 10.007812 10.992188 9.15625 11.351562 8.617188 C 11.496094 8.410156 11.734375 8.285156 11.992188 8.285156 M 11.992188 7.785156 C 11.582031 7.785156 11.179688 7.984375 10.9375 8.34375 C 10.484375 9.023438 10.605469 10 10.820312 10.765625 C 10.945312 11.214844 10.789062 11.699219 10.425781 11.996094 C 11.109375 12.125 11.699219 12.1875 12.207031 12.1875 C 13.589844 12.1875 14.386719 11.734375 14.871094 10.988281 C 15.054688 10.710938 15.125 10.375 15.058594 10.042969 C 14.992188 9.710938 14.800781 9.425781 14.515625 9.234375 C 14.304688 9.089844 14.054688 9.019531 13.808594 9.019531 C 13.617188 9.019531 13.425781 9.0625 13.257812 9.144531 C 13.289062 8.707031 13.085938 8.269531 12.695312 8.003906 C 12.480469 7.855469 12.234375 7.785156 11.992188 7.785156 Z M 11.992188 7.785156"/><path style="stroke:none;fill-rule:nonzero;fill:#242424;fill-opacity:1" d="M 7.859375 9.308594 C 7.90625 9.308594 7.972656 9.304688 8.035156 9.308594 C 8.101562 9.3125 8.164062 9.316406 8.230469 9.324219 C 8.292969 9.328125 8.359375 9.339844 8.421875 9.351562 C 8.488281 9.363281 8.554688 9.375 8.625 9.398438 C 8.691406 9.414062 8.761719 9.445312 8.832031 9.46875 C 8.902344 9.503906 8.972656 9.535156 9.042969 9.585938 C 9.109375 9.628906 9.179688 9.695312 9.238281 9.757812 C 9.300781 9.828125 9.355469 9.90625 9.390625 9.996094 C 9.4375 10.078125 9.449219 10.171875 9.46875 10.257812 L 9.46875 10.265625 L 9.472656 10.300781 L 9.472656 10.335938 L 9.476562 10.378906 L 9.476562 10.410156 L 9.472656 10.433594 C 9.472656 10.460938 9.46875 10.492188 9.464844 10.523438 C 9.460938 10.550781 9.453125 10.582031 9.449219 10.609375 C 9.441406 10.636719 9.429688 10.660156 9.421875 10.6875 C 9.402344 10.734375 9.382812 10.78125 9.351562 10.824219 C 9.324219 10.867188 9.296875 10.910156 9.261719 10.945312 C 9.226562 10.980469 9.195312 11.015625 9.15625 11.039062 C 9.085938 11.09375 9.011719 11.132812 8.941406 11.167969 C 8.871094 11.199219 8.800781 11.21875 8.734375 11.238281 C 8.664062 11.253906 8.597656 11.265625 8.53125 11.277344 C 8.460938 11.285156 8.40625 11.289062 8.320312 11.292969 L 8.335938 10.617188 C 8.390625 10.621094 8.421875 10.625 8.460938 10.628906 C 8.5 10.636719 8.535156 10.640625 8.574219 10.648438 C 8.648438 10.667969 8.722656 10.6875 8.796875 10.714844 C 8.945312 10.773438 9.097656 10.859375 9.226562 10.996094 C 9.292969 11.066406 9.34375 11.144531 9.390625 11.230469 C 9.410156 11.273438 9.429688 11.320312 9.445312 11.363281 C 9.460938 11.410156 9.46875 11.453125 9.480469 11.5 C 9.492188 11.546875 9.492188 11.589844 9.496094 11.632812 L 9.5 11.699219 L 9.5 11.730469 L 9.492188 11.800781 L 9.480469 11.890625 C 9.484375 11.894531 9.472656 11.9375 9.460938 11.964844 C 9.453125 11.996094 9.441406 12.03125 9.425781 12.058594 C 9.414062 12.089844 9.402344 12.121094 9.386719 12.148438 L 9.34375 12.214844 C 9.3125 12.257812 9.28125 12.304688 9.246094 12.335938 C 9.210938 12.371094 9.171875 12.402344 9.136719 12.433594 C 9.101562 12.460938 9.0625 12.484375 9.023438 12.511719 C 8.988281 12.535156 8.953125 12.554688 8.914062 12.570312 C 8.878906 12.589844 8.839844 12.609375 8.804688 12.621094 C 8.730469 12.648438 8.660156 12.675781 8.589844 12.695312 C 8.445312 12.734375 8.308594 12.757812 8.171875 12.773438 C 8.105469 12.785156 8.035156 12.789062 7.96875 12.792969 C 7.898438 12.796875 7.835938 12.800781 7.753906 12.800781 L 7.75 12.800781 C 7.511719 12.796875 7.316406 12.597656 7.320312 12.355469 C 7.324219 12.113281 7.519531 11.921875 7.761719 11.921875 C 7.773438 11.921875 7.785156 11.925781 7.796875 11.925781 C 7.832031 11.929688 7.890625 11.929688 7.941406 11.929688 C 7.992188 11.929688 8.046875 11.929688 8.097656 11.925781 C 8.199219 11.921875 8.296875 11.910156 8.390625 11.890625 C 8.4375 11.886719 8.476562 11.871094 8.519531 11.859375 C 8.542969 11.855469 8.554688 11.847656 8.574219 11.839844 C 8.589844 11.832031 8.609375 11.828125 8.621094 11.820312 L 8.664062 11.796875 C 8.671875 11.789062 8.679688 11.78125 8.691406 11.777344 C 8.703125 11.773438 8.699219 11.765625 8.707031 11.761719 C 8.710938 11.757812 8.714844 11.753906 8.71875 11.753906 C 8.71875 11.753906 8.714844 11.757812 8.714844 11.761719 C 8.710938 11.765625 8.714844 11.769531 8.714844 11.773438 C 8.714844 11.773438 8.722656 11.789062 8.722656 11.765625 L 8.742188 11.675781 L 8.742188 11.664062 L 8.746094 11.660156 L 8.746094 11.65625 C 8.742188 11.675781 8.75 11.609375 8.738281 11.703125 L 8.738281 11.664062 C 8.738281 11.648438 8.742188 11.628906 8.738281 11.617188 C 8.734375 11.605469 8.734375 11.589844 8.734375 11.578125 C 8.730469 11.566406 8.726562 11.554688 8.722656 11.542969 C 8.714844 11.523438 8.703125 11.5 8.6875 11.480469 C 8.65625 11.4375 8.601562 11.394531 8.527344 11.359375 C 8.492188 11.34375 8.453125 11.328125 8.410156 11.316406 C 8.386719 11.308594 8.367188 11.300781 8.34375 11.296875 L 8.292969 11.289062 L 8.28125 11.285156 C 8.09375 11.246094 7.976562 11.066406 8.015625 10.882812 C 8.042969 10.734375 8.164062 10.628906 8.304688 10.613281 C 8.332031 10.609375 8.382812 10.601562 8.421875 10.59375 C 8.464844 10.585938 8.503906 10.574219 8.542969 10.5625 C 8.613281 10.535156 8.675781 10.5 8.703125 10.472656 C 8.710938 10.464844 8.710938 10.457031 8.71875 10.453125 C 8.722656 10.449219 8.722656 10.445312 8.722656 10.441406 C 8.726562 10.441406 8.722656 10.4375 8.722656 10.433594 C 8.722656 10.433594 8.722656 10.429688 8.722656 10.429688 C 8.722656 10.433594 8.71875 10.4375 8.71875 10.4375 C 8.71875 10.441406 8.71875 10.445312 8.722656 10.449219 L 8.71875 10.421875 L 8.714844 10.378906 L 8.710938 10.347656 L 8.710938 10.34375 C 8.71875 10.414062 8.714844 10.363281 8.714844 10.378906 L 8.714844 10.375 C 8.703125 10.359375 8.707031 10.335938 8.695312 10.328125 C 8.6875 10.316406 8.671875 10.304688 8.664062 10.292969 C 8.644531 10.285156 8.636719 10.269531 8.609375 10.257812 C 8.589844 10.246094 8.558594 10.234375 8.527344 10.222656 C 8.492188 10.214844 8.460938 10.203125 8.421875 10.195312 C 8.347656 10.179688 8.261719 10.171875 8.171875 10.171875 C 8.128906 10.167969 8.082031 10.167969 8.035156 10.171875 C 7.992188 10.171875 7.949219 10.175781 7.886719 10.179688 C 7.644531 10.199219 7.433594 10.019531 7.414062 9.777344 C 7.394531 9.539062 7.578125 9.328125 7.816406 9.308594 C 7.828125 9.308594 7.835938 9.308594 7.847656 9.308594 Z M 7.859375 9.308594"/><path style="stroke:none;fill-rule:nonzero;fill:#242424;fill-opacity:1" d="M 9.082031 6.519531 C 9.082031 6.519531 9.089844 6.515625 9.109375 6.5 C 9.113281 6.492188 9.125 6.484375 9.136719 6.476562 C 9.152344 6.460938 9.175781 6.449219 9.199219 6.433594 C 9.25 6.402344 9.296875 6.371094 9.359375 6.339844 C 9.421875 6.308594 9.488281 6.28125 9.566406 6.253906 C 9.722656 6.199219 9.90625 6.160156 10.101562 6.140625 C 10.296875 6.121094 10.507812 6.128906 10.714844 6.15625 C 10.777344 6.167969 10.800781 6.167969 10.859375 6.179688 C 10.917969 6.191406 10.96875 6.203125 11.015625 6.214844 C 11.117188 6.238281 11.210938 6.273438 11.304688 6.308594 C 11.488281 6.378906 11.65625 6.46875 11.789062 6.566406 C 11.921875 6.660156 12.023438 6.757812 12.089844 6.835938 C 12.125 6.875 12.148438 6.90625 12.164062 6.929688 C 12.179688 6.953125 12.191406 6.964844 12.191406 6.964844 C 12.300781 7.117188 12.265625 7.332031 12.109375 7.441406 C 11.988281 7.527344 11.828125 7.523438 11.710938 7.4375 L 11.675781 7.414062 C 11.675781 7.414062 11.648438 7.394531 11.601562 7.363281 C 11.550781 7.332031 11.476562 7.292969 11.378906 7.246094 C 11.285156 7.203125 11.164062 7.15625 11.027344 7.117188 C 10.960938 7.097656 10.890625 7.082031 10.816406 7.066406 C 10.777344 7.054688 10.746094 7.050781 10.710938 7.042969 C 10.683594 7.039062 10.617188 7.03125 10.59375 7.023438 C 10.441406 7.003906 10.289062 6.992188 10.148438 6.992188 C 10.007812 6.996094 9.878906 7.003906 9.773438 7.019531 C 9.722656 7.03125 9.675781 7.039062 9.632812 7.046875 C 9.59375 7.054688 9.554688 7.066406 9.535156 7.074219 C 9.523438 7.074219 9.511719 7.078125 9.503906 7.078125 C 9.488281 7.085938 9.476562 7.089844 9.464844 7.09375 C 9.445312 7.101562 9.4375 7.105469 9.4375 7.105469 C 9.257812 7.175781 9.058594 7.09375 8.984375 6.914062 C 8.929688 6.773438 8.972656 6.613281 9.082031 6.519531 Z M 9.082031 6.519531"/><path style="stroke:none;fill-rule:nonzero;fill:#242424;fill-opacity:1" d="M 8.996094 6.558594 C 8.996094 6.558594 9.003906 6.550781 9.011719 6.53125 C 9.019531 6.515625 9.042969 6.480469 9.074219 6.4375 C 9.132812 6.355469 9.214844 6.253906 9.324219 6.144531 C 9.433594 6.035156 9.566406 5.917969 9.714844 5.808594 C 9.792969 5.753906 9.867188 5.695312 9.953125 5.644531 C 10.035156 5.589844 10.113281 5.542969 10.207031 5.488281 C 10.285156 5.445312 10.375 5.394531 10.464844 5.351562 C 10.550781 5.308594 10.640625 5.273438 10.726562 5.234375 C 10.898438 5.164062 11.066406 5.109375 11.214844 5.074219 C 11.363281 5.035156 11.496094 5.015625 11.59375 5.011719 C 11.6875 5.003906 11.75 5.003906 11.75 5.003906 C 11.9375 5.011719 12.085938 5.171875 12.078125 5.363281 C 12.074219 5.507812 11.984375 5.625 11.855469 5.671875 L 11.828125 5.683594 C 11.828125 5.683594 11.792969 5.695312 11.734375 5.71875 C 11.671875 5.742188 11.578125 5.777344 11.464844 5.828125 C 11.351562 5.878906 11.21875 5.941406 11.078125 6.015625 C 11.007812 6.050781 10.933594 6.089844 10.859375 6.128906 C 10.785156 6.167969 10.714844 6.207031 10.632812 6.253906 C 10.5625 6.292969 10.484375 6.339844 10.414062 6.382812 C 10.339844 6.425781 10.269531 6.46875 10.203125 6.511719 C 10.066406 6.59375 9.945312 6.675781 9.84375 6.746094 C 9.742188 6.820312 9.664062 6.878906 9.609375 6.921875 C 9.589844 6.9375 9.570312 6.949219 9.550781 6.96875 C 9.535156 6.984375 9.527344 6.988281 9.527344 6.988281 C 9.386719 7.117188 9.167969 7.109375 9.039062 6.964844 C 8.9375 6.851562 8.925781 6.6875 8.996094 6.558594 Z M 8.996094 6.558594"/><use mask="url(#mask0)" xlink:href="#surface6"/><path style="stroke:none;fill-rule:nonzero;fill:#242424;fill-opacity:1" d="M 5.582031 5.078125 C 5.058594 5.078125 4.582031 5.519531 4.582031 6.253906 C 4.582031 6.988281 5.058594 7.429688 5.582031 7.429688 C 6.109375 7.429688 6.582031 6.988281 6.582031 6.253906 C 6.582031 5.519531 6.109375 5.078125 5.582031 5.078125 Z M 5.582031 5.078125"/></g></svg>

<svg xmlns="http://www.w3.org/2000/svg" xmlns:xlink="http://www.w3.org/1999/xlink" width="16pt" height="16pt" viewBox="0 0 16 16"><defs><radialGradient id="c" cx="29.786" cy="66.916" r="19.444" fx="29.786" fy="66.916" gradientTransform="matrix(.12239 0 0 .11626 .26 1.011)" gradientUnits="userSpaceOnUse"><stop offset="0" style="stop-color:#ed7770;stop-opacity:1"/><stop offset=".9" style="stop-color:#ed7770;stop-opacity:0"/></radialGradient><linearGradient id="d" x1="64.074" x2="64.074" y1="19.743" y2="107.8" gradientTransform="scale(.125)" gradientUnits="userSpaceOnUse"><stop offset=".5" style="stop-color:#fee133;stop-opacity:1"/><stop offset=".612" style="stop-color:#fede32;stop-opacity:1"/><stop offset=".708" style="stop-color:#fcd32f;stop-opacity:1"/><stop offset=".797" style="stop-color:#fac12b;stop-opacity:1"/><stop offset=".883" style="stop-color:#f7a924;stop-opacity:1"/><stop offset=".9" style="stop-color:#f6a323;stop-opacity:1"/></linearGradient><clipPath id="b"><path d="M0 0h16v16H0z"/></clipPath><filter id="a" width="100%" height="100%" x="0%" y="0%" filterUnits="objectBoundingBox"><feColorMatrix in="SourceGraphic" values="0 0 0 0 1 0 0 0 0 1 0 0 0 0 1 0 0 0 1 0"/></filter><mask id="e"><g filter="url(#a)"><path d="M0 0h16v16H0z" style="fill:#000;fill-opacity:.8;stroke:none"/></g></mask><g id="f" clip-path="url(#b)"><path d="M6.094 8.793a2.189 2.189 0 0 1-4.375 0 2.186 2.186 0 1 1 4.375 0m0 0" style="stroke:none;fill-rule:nonzero;fill:url(#c)"/></g></defs><path d="M8.008 15C4.516 15 .754 12.813.754 8.008s3.762-6.992 7.254-6.992c1.937 0 3.73.64 5.05 1.804 1.442 1.274 2.208 3.067 2.208 5.188 0 2.11-.766 3.898-2.207 5.176C11.734 14.355 9.94 15 8.008 15m0 0" style="stroke:none;fill-rule:nonzero;fill:url(#d)"/><path d="M8.008 1.266c1.879 0 3.61.617 4.883 1.742 1.39 1.226 2.125 2.953 2.125 5 0 2.035-.735 3.762-2.125 4.988-1.278 1.133-3.008 1.754-4.883 1.754-1.88 0-3.617-.613-4.883-1.73-1.387-1.22-2.121-2.954-2.121-5.012 0-2.07.734-3.805 2.121-5.024 1.266-1.109 3-1.718 4.883-1.718m0-.5C4.113.766.504 3.266.504 8.008c0 4.715 3.61 7.242 7.504 7.242 3.898 0 7.508-2.594 7.508-7.242 0-4.676-3.61-7.242-7.508-7.242m0 0" style="stroke:none;fill-rule:nonzero;fill:#eb8f00;fill-opacity:1"/><path d="M29.094 44.063c-.907 0-1.719-.438-2.188-1.126-.468-.687-.562-1.562-.25-2.437 1.969-5 5.969-9.219 11-11.531 1.875-.875 3.844-1.469 5.875-1.719.125-.031.25-.031.375-.031 1.313 0 2.344.843 2.532 2.125a2.754 2.754 0 0 1-1.876 3.031l-.406-.719.282.75C39.094 34.25 34.344 38 31.406 42.72c-.5.843-1.343 1.343-2.312 1.343Zm0 0" style="fill-rule:nonzero;fill:#eb8f00;fill-opacity:1;stroke-width:1;stroke-linecap:butt;stroke-linejoin:miter;stroke:#eb8f00;stroke-opacity:1;stroke-miterlimit:10" transform="scale(.125)"/><path d="M12.207 11.938q-.582-.002-1.305-.114c.203-.336.266-.742.157-1.129-.188-.668-.325-1.593.09-2.21a1 1 0 0 1 .843-.446c.203 0 .395.059.559.172.312.21.48.555.457.918a.24.24 0 0 0 .11.223.23.23 0 0 0 .14.043q.053 0 .105-.024a1.02 1.02 0 0 1 1.012.07c.23.153.383.387.438.653.05.261 0 .527-.153.758-.48.742-1.262 1.085-2.453 1.085m0 0" style="stroke:none;fill-rule:nonzero;fill:#cc1775;fill-opacity:1"/><path d="M11.992 8.285c.149 0 .293.047.414.13l.008.007a.76.76 0 0 1 .344.687.5.5 0 0 0 .715.485.77.77 0 0 1 .762.055.77.77 0 0 1 .218 1.066c-.273.418-.805.969-2.25.969a8 8 0 0 1-.933-.063c.109-.316.12-.664.027-.996-.172-.617-.305-1.469.055-2.008a.78.78 0 0 1 .64-.332m0-.5c-.41 0-.812.2-1.055.559-.453.68-.332 1.656-.117 2.422.125.449-.03.933-.394 1.23a9.7 9.7 0 0 0 1.781.191c1.383 0 2.18-.453 2.664-1.199a1.265 1.265 0 0 0-.355-1.754 1.25 1.25 0 0 0-.707-.214c-.192 0-.383.043-.551.125a1.27 1.27 0 0 0-.563-1.141 1.23 1.23 0 0 0-.703-.219m0 0" style="stroke:none;fill-rule:nonzero;fill:#b3005c;fill-opacity:1"/><path d="M7.86 9.309c.046 0 .113-.004.175 0a3 3 0 0 1 .387.043c.066.011.133.023.203.046.066.016.137.047.207.07.07.036.14.067.211.118.066.043.137.11.195.172a.8.8 0 0 1 .153.238c.046.082.058.176.078.262v.008l.004.035v.035l.004.043v.031l-.004.024q-.001.041-.008.09c-.004.027-.012.058-.016.085-.008.028-.02.051-.027.079a.7.7 0 0 1-.07.136.7.7 0 0 1-.09.121c-.035.035-.067.07-.106.094-.07.055-.144.094-.215.129-.07.031-.14.05-.207.07q-.104.023-.203.04c-.07.007-.125.011-.21.015l.015-.676c.055.004.086.008.125.012.039.008.074.012.113.02q.111.027.223.066c.148.058.3.144.43.281.066.07.117.149.164.234q.03.066.054.133c.016.047.024.09.035.137s.012.09.016.133l.004.066v.031l-.008.07-.012.09c.004.005-.007.047-.02.075a.4.4 0 0 1-.034.094q-.017.046-.04.09l-.042.066c-.031.043-.063.09-.098.12q-.054.053-.11.099c-.034.027-.073.05-.113.078a.6.6 0 0 1-.109.058 1 1 0 0 1-.11.051c-.074.027-.144.055-.214.074-.145.04-.281.063-.418.078-.067.012-.137.016-.203.02-.07.004-.133.008-.215.008H7.75a.44.44 0 0 1 .012-.88c.011 0 .023.005.035.005a2 2 0 0 0 .144.004c.051 0 .106 0 .157-.004q.152-.006.293-.035c.046-.004.086-.02.129-.032.023-.004.035-.011.054-.02.016-.007.035-.01.047-.019l.043-.023a.1.1 0 0 1 .027-.02c.012-.004.008-.011.016-.015q.006-.007.012-.008s-.004.004-.004.008c-.004.004 0 .008 0 .011 0 0 .008.016.008-.007l.02-.09v-.012l.003-.004v-.004c-.004.02.004-.047-.008.047v-.039c0-.016.004-.035 0-.047q-.005-.02-.004-.039l-.011-.035a.3.3 0 0 0-.036-.063.4.4 0 0 0-.16-.12 1 1 0 0 0-.117-.044q-.033-.012-.066-.02l-.051-.007-.012-.004a.34.34 0 0 1-.265-.402.33.33 0 0 1 .289-.27c.027-.004.078-.011.117-.02q.063-.012.121-.03a.5.5 0 0 0 .16-.09c.008-.008.008-.016.016-.02q.005-.006.004-.012c.004 0 0-.004 0-.007v-.004c0 .004-.004.008-.004.008q-.001.005.004.011l-.004-.027-.004-.043-.004-.031v-.004c.008.07.004.02.004.035v-.004c-.012-.016-.008-.04-.02-.047-.008-.012-.023-.023-.03-.035-.02-.008-.028-.023-.056-.035a1 1 0 0 0-.082-.035c-.035-.008-.066-.02-.105-.028a1.2 1.2 0 0 0-.25-.023 1 1 0 0 0-.137 0c-.043 0-.086.004-.148.008a.44.44 0 0 1-.473-.403.44.44 0 0 1 .402-.468h.032ZM9.082 6.52s.008-.004.027-.02c.004-.008.016-.016.028-.023.015-.016.039-.028.062-.043.051-.032.098-.063.16-.094q.093-.046.207-.086c.157-.055.34-.094.536-.113.195-.02.406-.012.613.015.062.012.086.012.144.024q.087.017.157.035c.101.023.195.058.289.094.183.07.351.16.484.257a1.7 1.7 0 0 1 .402.399.34.34 0 0 1-.082.476.34.34 0 0 1-.398-.003l-.035-.024-.074-.05a2.52 2.52 0 0 0-.785-.297c-.04-.012-.07-.016-.106-.024-.027-.004-.094-.012-.117-.02a4 4 0 0 0-.446-.03c-.14.003-.27.01-.375.027q-.075.016-.14.027a1 1 0 0 0-.098.027q-.018.002-.031.004-.022.011-.04.016l-.027.011a.35.35 0 0 1-.453-.19.355.355 0 0 1 .098-.395m0 0" style="stroke:none;fill-rule:nonzero;fill:#242424;fill-opacity:1"/><path d="M8.996 6.559q.002.001.016-.028a2.346 2.346 0 0 1 .313-.387c.109-.109.241-.226.39-.335.078-.055.152-.114.238-.164.082-.055.16-.102.254-.157.078-.043.168-.093.258-.136.086-.043.176-.079.262-.118.171-.07.34-.125.488-.16.148-.039.281-.058.379-.062.094-.008.156-.008.156-.008a.345.345 0 0 1 .328.36.33.33 0 0 1-.223.308l-.027.012s-.035.011-.094.035c-.062.023-.156.058-.27.11-.112.05-.245.112-.386.187l-.219.113a7 7 0 0 0-.445.254 5 5 0 0 0-.21.129 7 7 0 0 0-.36.234q-.153.111-.235.176c-.02.016-.039.027-.058.047q-.024.021-.024.02a.34.34 0 0 1-.488-.024.355.355 0 0 1-.043-.406m0 0" style="stroke:none;fill-rule:nonzero;fill:#242424;fill-opacity:1"/><use xlink:href="#f" mask="url(#e)"/><path d="M5.582 5.078c-.523 0-1 .442-1 1.176s.477 1.176 1 1.176c.527 0 1-.442 1-1.176s-.473-1.176-1-1.176m0 0" style="stroke:none;fill-rule:nonzero;fill:#242424;fill-opacity:1"/></svg>
